X:130
T:Reel 130
M:4/4
K:Gmaj
L:1/8
dc|B>G (3GGG BGdc|B>G (3GGG g2fg|aA (3AAA AcAc||BGBG Gedc:||2BGGA BGd2| (3BcB gd bBBd|Bdef g2g2| (3BcB gB gBdB|cABG AGED| (3Bcd gd dBdg|Bcde dgfa|bgaf gfed|egfa gedB|
